X:12
T:Bonniest Wife this side of Lord Reay's Country, The
T:'S ann agam tha bheanag is Maisiche S\`uil
R:Jig
S:Simon Fraser Collection
N:No.177
O:Scottish
M:6/8
L:1/8
K:D
F|(D/E/F)F (F>EF)|(F>EF) d2f|edc d2B|AFE E2F|(D/E/F)F (F>EF)|
(F>EF) d2f|edc d2B|AFF F2:|
a|b2f afd|b2f afd|c[Ae][Ae] [A2e2]f|c[Ae][Ae] [A2e2]a|b2f afd|
b2f afd|edc d2B|AFF F2a|b2f afd|dfb afd|fdB AGF|ABc dfg|
a>gf edc|dcB AGF|ABc def|AFF [DF]||

